fa/svgs/regular/file-pdf.svg

<svg xmlns="http://www.w3.org/2000/svg" viewBox="0 0 384 512"><!--! Font Awesome Free 6.1.1 by @fontawesome - https://fontawesome.com License - https://fontawesome.com/license/free (Icons: CC BY 4.0, Fonts: SIL OFL 1.1, Code: MIT License) Copyright 2022 Fonticons, Inc.--><path d="M320 464c8.8 0 16-7.2 16-16v-32h48v32c0 35.3-28.7 64-64 64H64c-35.35 0-64-28.7-64-64v-32h48v32c0 8.8 7.16 16 16 16h256zm-64-304c-17.7 0-32-14.3-32-32V48H64c-8.84 0-16 7.16-16 16v128H0V64C0 28.65 28.65 0 64 0h165.5c17 0 33.2 6.743 45.2 18.75l90.6 90.55c12 12 18.7 28.2 18.7 45.2V192h-48v-32h-80zM88 224c30.9 0 56 25.1 56 56s-25.1 56-56 56h-8v32c0 8.8-7.16 16-16 16s-16-7.2-16-16V240c0-8.8 7.16-16 16-16h24zm24 56c0-13.3-10.7-24-24-24h-8v48h8c13.3 0 24-10.7 24-24zm48-40c0-8.8 7.2-16 16-16h24c26.5 0 48 21.5 48 48v64c0 26.5-21.5 48-48 48h-24c-8.8 0-16-7.2-16-16V240zm32 112h8c8.8 0 16-7.2 16-16v-64c0-8.8-7.2-16-16-16h-8v96zm144-128c8.8 0 16 7.2 16 16s-7.2 16-16 16h-32v32h32c8.8 0 16 7.2 16 16s-7.2 16-16 16h-32v48c0 8.8-7.2 16-16 16s-16-7.2-16-16V240c0-8.8 7.2-16 16-16h48z"/></svg>

<svg xmlns="http://www.w3.org/2000/svg" viewBox="0 0 384 512"><!--! Font Awesome Free 6.2.1 by @fontawesome - https://fontawesome.com License - https://fontawesome.com/license/free (Icons: CC BY 4.0, Fonts: SIL OFL 1.1, Code: MIT License) Copyright 2022 Fonticons, Inc. --><path d="M320 464C328.8 464 336 456.8 336 448V416H384V448C384 483.3 355.3 512 320 512H64C28.65 512 0 483.3 0 448V416H48V448C48 456.8 55.16 464 64 464H320zM256 160C238.3 160 224 145.7 224 128V48H64C55.16 48 48 55.16 48 64V192H0V64C0 28.65 28.65 0 64 0H229.5C246.5 0 262.7 6.743 274.7 18.75L365.3 109.3C377.3 121.3 384 137.5 384 154.5V192H336V160H256zM88 224C118.9 224 144 249.1 144 280C144 310.9 118.9 336 88 336H80V368C80 376.8 72.84 384 64 384C55.16 384 48 376.8 48 368V240C48 231.2 55.16 224 64 224H88zM112 280C112 266.7 101.3 256 88 256H80V304H88C101.3 304 112 293.3 112 280zM160 240C160 231.2 167.2 224 176 224H200C226.5 224 248 245.5 248 272V336C248 362.5 226.5 384 200 384H176C167.2 384 160 376.8 160 368V240zM192 352H200C208.8 352 216 344.8 216 336V272C216 263.2 208.8 256 200 256H192V352zM336 224C344.8 224 352 231.2 352 240C352 248.8 344.8 256 336 256H304V288H336C344.8 288 352 295.2 352 304C352 312.8 344.8 320 336 320H304V368C304 376.8 296.8 384 288 384C279.2 384 272 376.8 272 368V240C272 231.2 279.2 224 288 224H336z"/></svg>
